X:1

T:Robinson County

M:C

L:1/8

R:Reel

S:Bruce Molsky

N:From a transcription by John Lamancusa, by permission; see http://www.mne.psu.edu/lamancusa/tunes.htm

Z:AK/Fiddler’s Companion

K:D

FG|:A2f2 fgfe|dABd BAFG|A2f2 fg f2|e3f edcB|A2 fA fgfe|

dABd BAFG|AGFD E2E2|1 D3E D2FG:|2 D3E D2dB||

|:A2F2 EFAB|AFEF D2(A2|A)BAF ED F2|A3B A2dB|

A2F2 EFAB|AFEF D2(A2|A)BAF EDEF|1 D3E D2dB:|2 D3E D4||

                                               

ROBINSON'S TUNE. AKA and see "Abbots Bromley Horn Dance." English, Dance Tune. G Minor. Standard tuning. AB. One of the tunes associated with the ritual horn dance from the village of Abbots Bromley (Staffordshire), written c. 1700. "It was sent to (British folksong collector Cecil) Sharp in 1910 by a Mr. Buckley, an Abbots Bromley resident who noted the tune in 1857 or 1858. He learned it from William (or Henry) Robinson, the town's wheelwright and a very good fiddle player. While he never played for the dance, he was the only one in the village who remembered the tune, which he said was still used when he was a young man. We know that Robinson was born in the 1790's, because his sold his shop in 1878 while he was in his eighties. Robinson indicated that the tune was ancient in his day. However, because of technical aspects of the tune, doubt has been raised as to the authenticity of Robinson's tune as an early horn dance accompaniment (see particularly Cawte, pp. 78‑79)" [Bullen, 1987].  Andrew Bullen, Country Dance and Song, May 1987, vol. 17, pg. 10.